docs/img/svgicons/topics/puzzles.svg

<svg width="800" height="800" fill="none" xmlns="http://www.w3.org/2000/svg"><path d="M599.85 443.8h-67.775c-.35 0-.625-.2-.975-.2-17.25.025-31.225 14-31.25 31.25v.125c0 20.7-16.775 37.5-37.5 37.5s-37.5-16.775-37.5-37.5v-.15c0-17.25-14-31.25-31.25-31.25-.35 0-.625.175-.975.2H356.2v-11.6c40.225-13.3 68.75-50.575 68.75-94.5s-28.525-81.2-68.05-94.3l-.7-.2V199.95c0-17.25-14-31.25-31.25-31.25H49.975c-17.25 0-31.25 14-31.25 31.25v274.4l-.125.6v275c0 17.25 14 31.25 31.25 31.25l549.975.1c17.25-.025 31.225-14 31.25-31.25v-275c-.025-17.25-13.975-31.225-31.225-31.25zM81.25 231.2h212.475v37.75c0 17.25 14 31.25 31.25 31.25 20.7 0 37.5 16.8 37.5 37.5s-16.8 37.5-37.5 37.5c-17.25 0-31.25 14-31.25 31.25v37.25H282.1c-13.425-40.25-50.75-68.75-94.725-68.75-41.175 0-76.525 24.975-91.7 60.6l-.25.65c-1.025 2.4-1.525 5-2.35 7.5H81.25V231.2zm-.125 275h36.425c.425.025.775.25 1.2.25 17.3-.15 31.275-14.175 31.35-31.475.15-20.55 16.85-37.175 37.45-37.175 20.675 0 37.425 16.75 37.45 37.4 0 17.25 14 31.25 31.25 31.25.425 0 .775-.225 1.2-.25h36.2v11.65c-40.25 13.425-68.75 50.75-68.75 94.725 0 41.15 24.95 76.475 60.55 91.675l.65.25c2.4 1.025 5.05 1.55 7.55 2.375v11.8H81.15L81.125 506.2zM568.6 718.8H356.125v-36.5c.025-.375.225-.7.225-1.075-.15-17.3-14.15-31.275-31.45-31.35-20.625-.075-37.35-16.8-37.35-37.45 0-20.675 16.775-37.45 37.45-37.45h.125c17.25 0 31.25-14 31.25-31.25 0-.375-.2-.7-.225-1.075v-36.325h11.8c13.35 40.125 50.575 68.55 94.425 68.55 43.85 0 81.075-28.425 94.225-67.85l.2-.7h11.8V718.8zM749.85 18.75H474.9c-17.25 0-31.25 14-31.25 31.25v67.55c-.025.425-.25.775-.25 1.2 0 17.25 14 31.25 31.25 31.25 20.7 0 37.5 16.8 37.5 37.5s-16.8 37.5-37.5 37.5c-17.25 0-31.25 14-31.25 31.25 0 .425.225.775.25 1.2V325c0 17.25 14 31.25 31.25 31.25h42.75c13.3 40.225 50.575 68.75 94.5 68.75s81.2-28.525 94.3-68.05l.2-.7h43.2c17.25 0 31.25-14 31.25-31.25V50c0-17.25-14-31.25-31.25-31.25zm-31.25 275h-37.7c-17.25 0-31.25 14-31.25 31.25 0 20.7-16.8 37.5-37.5 37.5s-37.5-16.8-37.5-37.5c0-17.25-14-31.25-31.25-31.25h-37.25v-11.825c40.1-13.375 68.5-50.6 68.5-94.425 0-43.825-28.4-81.05-67.8-94.225l-.7-.2V81.25H718.6v212.5z" fill="#731C00"/></svg>

<svg width="800" height="800" viewBox="0 0 800 800" fill="none" xmlns="http://www.w3.org/2000/svg">
<path d="M599.85 443.8H532.075C531.725 443.8 531.45 443.6 531.1 443.6C513.85 443.625 499.875 457.6 499.85 474.85C499.85 474.9 499.85 474.95 499.85 474.975C499.85 495.675 483.075 512.475 462.35 512.475C441.625 512.475 424.85 495.7 424.85 474.975C424.85 474.925 424.85 474.875 424.85 474.825C424.85 457.575 410.85 443.575 393.6 443.575C393.25 443.575 392.975 443.75 392.625 443.775H356.2V432.175C396.425 418.875 424.95 381.6 424.95 337.675C424.95 293.75 396.425 256.475 356.9 243.375L356.2 243.175V199.95C356.2 182.7 342.2 168.7 324.95 168.7H49.9746C32.7246 168.7 18.7246 182.7 18.7246 199.95V474.35L18.5996 474.95V749.95C18.5996 767.2 32.5996 781.2 49.8496 781.2L599.825 781.3C617.075 781.275 631.05 767.3 631.075 750.05V475.05C631.05 457.8 617.1 443.825 599.85 443.8ZM81.2496 231.2H293.725V268.95C293.725 286.2 307.725 300.2 324.975 300.2C345.675 300.2 362.475 317 362.475 337.7C362.475 358.4 345.675 375.2 324.975 375.2C307.725 375.2 293.725 389.2 293.725 406.45V443.7H282.1C268.675 403.45 231.35 374.95 187.375 374.95C146.2 374.95 110.85 399.925 95.6746 435.55L95.4246 436.2C94.3996 438.6 93.8996 441.2 93.0746 443.7H81.2496V231.2ZM81.1246 506.2H117.55C117.975 506.225 118.325 506.45 118.75 506.45C136.05 506.3 150.025 492.275 150.1 474.975C150.25 454.425 166.95 437.8 187.55 437.8C208.225 437.8 224.975 454.55 225 475.2C225 492.45 239 506.45 256.25 506.45C256.675 506.45 257.025 506.225 257.45 506.2H293.65V517.85C253.4 531.275 224.9 568.6 224.9 612.575C224.9 653.725 249.85 689.05 285.45 704.25L286.1 704.5C288.5 705.525 291.15 706.05 293.65 706.875V718.675H81.1496L81.1246 506.2ZM568.6 718.8H356.125V682.3C356.15 681.925 356.35 681.6 356.35 681.225C356.2 663.925 342.2 649.95 324.9 649.875C304.275 649.8 287.55 633.075 287.55 612.425C287.55 591.75 304.325 574.975 325 574.975C325.05 574.975 325.075 574.975 325.125 574.975C342.375 574.975 356.375 560.975 356.375 543.725C356.375 543.35 356.175 543.025 356.15 542.65V506.325H367.95C381.3 546.45 418.525 574.875 462.375 574.875C506.225 574.875 543.45 546.45 556.6 507.025L556.8 506.325H568.6V718.8ZM749.85 18.75H474.9C457.65 18.75 443.65 32.75 443.65 50V117.55C443.625 117.975 443.4 118.325 443.4 118.75C443.4 136 457.4 150 474.65 150C495.35 150 512.15 166.8 512.15 187.5C512.15 208.2 495.35 225 474.65 225C457.4 225 443.4 239 443.4 256.25C443.4 256.675 443.625 257.025 443.65 257.45V325C443.65 342.25 457.65 356.25 474.9 356.25H517.65C530.95 396.475 568.225 425 612.15 425C656.075 425 693.35 396.475 706.45 356.95L706.65 356.25H749.85C767.1 356.25 781.1 342.25 781.1 325V50C781.1 32.75 767.1 18.75 749.85 18.75ZM718.6 293.75H680.9C663.65 293.75 649.65 307.75 649.65 325C649.65 345.7 632.85 362.5 612.15 362.5C591.45 362.5 574.65 345.7 574.65 325C574.65 307.75 560.65 293.75 543.4 293.75H506.15V281.925C546.25 268.55 574.65 231.325 574.65 187.5C574.65 143.675 546.25 106.45 506.85 93.275L506.15 93.075V81.25H718.6V293.75Z" fill="#731C00"/>
</svg>
